images/1hive_bee.svg

<svg width="151" height="45" viewBox="0 0 151 45" fill="none" xmlns="http://www.w3.org/2000/svg">
<path d="M29.147 8.20889C28.8574 8.20885 28.5797 8.09381 28.3749 7.88906C28.1702 7.68431 28.055 7.40659 28.055 7.11702C28.0535 5.8091 27.5334 4.55521 26.6086 3.63034C25.6838 2.70547 24.4298 2.18519 23.1219 2.18368C22.8323 2.18368 22.5546 2.0686 22.3499 1.86384C22.1451 1.65908 22.03 1.38138 22.03 1.0918C22.03 0.80223 22.1451 0.524522 22.3499 0.319763C22.5546 0.115004 22.8323 0 23.1219 0C25.0086 0.00230212 26.8173 0.75281 28.1513 2.08688C29.4854 3.42096 30.2359 5.22966 30.2382 7.11632C30.2384 7.40591 30.1235 7.68368 29.9189 7.88857C29.7142 8.09346 29.4366 8.2087 29.147 8.20889Z" fill="#044D44"/>
<path d="M33.6777 8.20917C33.3881 8.20913 33.1104 8.09408 32.9057 7.88934C32.7009 7.68459 32.5858 7.40687 32.5857 7.1173C32.5881 5.23049 33.3387 3.42167 34.673 2.08758C36.0073 0.753496 37.8162 0.00308986 39.7031 0.000976562C39.9926 0.000976563 40.2703 0.11605 40.4751 0.320809C40.6799 0.525568 40.7949 0.803276 40.7949 1.09285C40.7949 1.38242 40.6799 1.66013 40.4751 1.86489C40.2703 2.06965 39.9926 2.18465 39.7031 2.18465C38.3951 2.18612 37.1411 2.70638 36.2162 3.63124C35.2914 4.55611 34.7711 5.8101 34.7696 7.11806C34.7694 7.40753 34.6543 7.68502 34.4495 7.88962C34.2448 8.09422 33.9672 8.20917 33.6777 8.20917Z" fill="#044D44"/>
<path d="M16.9246 36.8311C12.9339 38.2613 9.58486 38.1163 7.36554 37.6868C4.30865 37.0958 2.52768 35.796 2.25372 35.2317C2.10869 34.9322 2.22678 34.8467 2.3393 34.7761L16.1802 26.7586V24.2344L1.23162 32.8936L1.20628 32.9079C0.0511194 33.6194 -0.317395 34.9358 0.288421 36.184C1.04426 37.7403 3.72122 39.2051 6.95024 39.8296C8.12602 40.0549 9.32065 40.1675 10.5178 40.1658C12.8682 40.1658 15.7089 39.7396 18.8496 38.4213L18.2916 38.0991C17.7472 37.7834 17.2802 37.3502 16.9246 36.8311Z" fill="#044D44"/>
<path d="M61.4806 32.9096C61.472 32.9044 61.4636 32.8995 61.455 32.8954L46.5064 24.2361V26.7603L60.3472 34.7778C60.4606 34.848 60.5789 34.9347 60.4336 35.2335C60.1596 35.7978 58.3787 37.0976 55.3218 37.6885C53.1028 38.1175 49.7541 38.2627 45.7641 36.8329C45.4111 37.3505 44.9475 37.7831 44.4067 38.0995L43.8413 38.4258C46.9806 39.743 49.8193 40.1687 52.169 40.1687C53.3661 40.1704 54.5606 40.0578 55.7364 39.8325C58.9654 39.208 61.6425 37.7432 62.3982 36.1869C63.0042 34.9376 62.6353 33.6211 61.4806 32.9096Z" fill="#044D44"/>
<path d="M44.402 18.1571L33.4555 11.8395C32.8151 11.4684 32.088 11.2729 31.3478 11.2727C30.6075 11.2726 29.8804 11.4677 29.2398 11.8386L18.2905 18.1577C17.6509 18.528 17.1195 19.0595 16.7493 19.6991C16.3791 20.3388 16.183 21.0642 16.1805 21.8033V34.4474C16.1824 35.1877 16.3782 35.9147 16.7486 36.5557C17.1189 37.1967 17.6508 37.7295 18.2912 38.1009L29.2348 44.4169C29.8755 44.7887 30.603 44.9847 31.3438 44.9852C32.0846 44.9856 32.8123 44.7904 33.4534 44.4193L44.406 38.0984C45.0436 37.7254 45.5726 37.1923 45.9409 36.552C46.3092 35.9117 46.5039 35.1862 46.5057 34.4476V21.8034C46.5031 21.065 46.3076 20.3402 45.9386 19.7006C45.5696 19.061 45.0399 18.529 44.402 18.1571ZM19.3836 20.0484L22.9254 18.0043H39.7678L43.3054 20.0459C43.6131 20.2251 43.8688 20.4814 44.047 20.7897C44.2252 21.0979 44.3197 21.4474 44.3214 21.8034V24.5755H18.3645V21.8039C18.3662 21.4478 18.4612 21.0983 18.64 20.7902C18.8188 20.4822 19.0752 20.2264 19.3836 20.0484ZM43.3106 36.2098L39.805 38.2329H22.889L19.3847 36.2105C19.0754 36.0314 18.8184 35.7745 18.6394 35.4651C18.4604 35.1558 18.3656 34.805 18.3645 34.4476V31.6622H44.3222V34.4476C44.3213 34.8039 44.2276 35.1539 44.0502 35.4629C43.8728 35.7719 43.6179 36.0294 43.3106 36.2098Z" fill="#044D44"/>
<path d="M71.4409 21.1626C72.0368 20.9211 72.6532 20.6495 73.2902 20.3476C73.9477 20.0257 74.5847 19.6836 75.2011 19.3214C75.8175 18.9391 76.4031 18.5467 76.9579 18.1442C77.5333 17.7217 78.0469 17.279 78.499 16.8162H81.7044V37.7332H77.112V22.6717C76.4956 23.0742 75.8073 23.4465 75.047 23.7885C74.2868 24.1105 73.547 24.3922 72.8279 24.6337L71.4409 21.1626Z" fill="#044D44"/>
<path d="M102.15 16.8162H106.958V37.7332H102.15V28.8593H94.0748V37.7332H89.2667V16.8162H94.0748V24.8148H102.15V16.8162Z" fill="#044D44"/>
<path d="M116.185 37.7332H111.593V21.8568H116.185V37.7332ZM116.617 17.2689C116.617 18.0939 116.339 18.7479 115.785 19.2308C115.25 19.6937 114.613 19.9251 113.874 19.9251C113.134 19.9251 112.487 19.6937 111.932 19.2308C111.398 18.7479 111.131 18.0939 111.131 17.2689C111.131 16.4439 111.398 15.8 111.932 15.3372C112.487 14.8543 113.134 14.6128 113.874 14.6128C114.613 14.6128 115.25 14.8543 115.785 15.3372C116.339 15.8 116.617 16.4439 116.617 17.2689Z" fill="#044D44"/>
<path d="M124.428 37.7332C123.38 35.721 122.312 33.3667 121.223 30.6703C120.154 27.974 119.137 25.0361 118.171 21.8568H123.041C123.247 22.6416 123.483 23.4968 123.75 24.4224C124.038 25.3279 124.325 26.2535 124.613 27.1992C124.921 28.1249 125.219 29.0304 125.507 29.9158C125.815 30.8011 126.113 31.606 126.401 32.3304C126.668 31.606 126.955 30.8011 127.264 29.9158C127.572 29.0304 127.87 28.1249 128.157 27.1992C128.466 26.2535 128.753 25.3279 129.02 24.4224C129.308 23.4968 129.555 22.6416 129.76 21.8568H134.507C133.541 25.0361 132.513 27.974 131.424 30.6703C130.356 33.3667 129.298 35.721 128.25 37.7332H124.428Z" fill="#044D44"/>
<path d="M135.774 29.9158C135.774 28.5072 135.99 27.2797 136.422 26.2334C136.874 25.1669 137.459 24.2815 138.178 23.5772C138.898 22.873 139.719 22.3397 140.644 21.9775C141.589 21.6153 142.555 21.4342 143.541 21.4342C145.843 21.4342 147.661 22.1284 148.997 23.5169C150.332 24.8852 151 26.9075 151 29.5837C151 29.8453 150.99 30.1371 150.969 30.4591C150.949 30.7609 150.928 31.0325 150.908 31.274H140.49C140.593 32.1996 141.035 32.9341 141.815 33.4774C142.596 34.0207 143.644 34.2923 144.959 34.2923C145.802 34.2923 146.623 34.2219 147.425 34.0811C148.247 33.9201 148.914 33.7289 149.428 33.5076L150.045 37.1598C149.798 37.2805 149.469 37.4012 149.058 37.522C148.647 37.6427 148.185 37.7433 147.671 37.8238C147.178 37.9244 146.644 38.0049 146.069 38.0653C145.493 38.1256 144.918 38.1558 144.343 38.1558C142.884 38.1558 141.61 37.9445 140.521 37.522C139.452 37.0994 138.559 36.5259 137.839 35.8015C137.141 35.057 136.617 34.1817 136.267 33.1756C135.939 32.1694 135.774 31.0828 135.774 29.9158ZM146.562 28.1953C146.541 27.813 146.469 27.4407 146.346 27.0785C146.243 26.7163 146.069 26.3944 145.822 26.1126C145.596 25.8309 145.298 25.5995 144.928 25.4184C144.579 25.2373 144.137 25.1468 143.603 25.1468C143.089 25.1468 142.647 25.2373 142.278 25.4184C141.908 25.5794 141.6 25.8008 141.353 26.0825C141.106 26.3642 140.911 26.6962 140.767 27.0785C140.644 27.4407 140.552 27.813 140.49 28.1953H146.562Z" fill="#044D44"/>
</svg>

<svg xmlns="http://www.w3.org/2000/svg" width="151" height="45" fill="#044d44" xmlns:v="https://vecta.io/nano"><path d="M29.147 8.209a1.09 1.09 0 0 1-1.092-1.092 4.94 4.94 0 0 0-4.933-4.933 1.09 1.09 0 0 1-1.092-1.092A1.09 1.09 0 0 1 23.122 0a7.12 7.12 0 0 1 5.029 2.087c1.334 1.334 2.085 3.143 2.087 5.029a1.09 1.09 0 0 1-1.091 1.093zm4.531 0a1.09 1.09 0 0 1-1.092-1.092c.002-1.887.753-3.696 2.087-5.03S37.816.003 39.703.001a1.09 1.09 0 0 1 1.092 1.092 1.09 1.09 0 0 1-1.092 1.092 4.94 4.94 0 0 0-4.934 4.933 1.09 1.09 0 0 1-1.092 1.091zM16.925 36.831c-3.991 1.43-7.34 1.285-9.559.856-3.057-.591-4.838-1.891-5.112-2.455-.145-.299-.027-.385.086-.456l13.841-8.017v-2.524L1.232 32.894l-.025.014c-1.155.712-1.524 2.028-.918 3.276.756 1.556 3.433 3.021 6.662 3.646 1.176.225 2.37.338 3.568.336 2.35 0 5.191-.426 8.332-1.744l-.558-.322a4.23 4.23 0 0 1-1.367-1.268zm44.556-3.921l-.026-.014-14.949-8.659v2.524l13.841 8.017c.113.07.232.157.086.456-.274.564-2.055 1.864-5.112 2.455-2.219.429-5.568.574-9.558-.856-.353.518-.817.95-1.357 1.267l-.565.326c3.139 1.317 5.978 1.743 8.328 1.743 1.197.002 2.392-.111 3.567-.336 3.229-.625 5.906-2.089 6.662-3.646.606-1.249.237-2.566-.918-3.277z"/><path d="M44.402 18.157L33.456 11.84c-.64-.371-1.367-.567-2.108-.567s-1.467.195-2.108.566l-10.949 6.319a4.23 4.23 0 0 0-2.11 3.646v12.644a4.24 4.24 0 0 0 .568 2.108c.37.641.902 1.174 1.543 1.545l10.944 6.316a4.2 4.2 0 0 0 2.109.568c.741 0 1.468-.195 2.11-.566l10.953-6.321a4.24 4.24 0 0 0 2.1-3.651V21.803a4.24 4.24 0 0 0-2.104-3.646zm-25.018 1.891l3.542-2.044h16.842l3.538 2.042a2.05 2.05 0 0 1 .742.744 2.03 2.03 0 0 1 .274 1.014v2.772H18.365v-2.772a2.04 2.04 0 0 1 1.019-1.755zM43.311 36.21l-3.506 2.023H22.889l-3.504-2.022c-.309-.179-.566-.436-.745-.745a2.04 2.04 0 0 1-.275-1.017v-2.785h25.958v2.785a2.05 2.05 0 0 1-1.012 1.762zm28.13-15.047l1.849-.815 1.911-1.026 1.757-1.177a12.44 12.44 0 0 0 1.541-1.328h3.205v20.917h-4.592V22.672c-.616.402-1.305.775-2.065 1.117l-2.219.845-1.387-3.471zm30.709-4.347h4.808v20.917h-4.808v-8.874h-8.075v8.874h-4.808V16.816h4.808v7.999h8.075v-7.999zm14.035 20.917h-4.592V21.857h4.592v15.876zm.432-20.464c0 .825-.278 1.479-.832 1.962-.535.463-1.172.694-1.911.694a2.94 2.94 0 0 1-1.942-.694c-.534-.483-.801-1.137-.801-1.962s.267-1.469.801-1.932c.555-.483 1.202-.724 1.942-.724s1.376.242 1.911.724c.554.463.832 1.107.832 1.932zm7.811 20.464c-1.048-2.012-2.116-4.366-3.205-7.063l-3.052-8.814h4.87l.709 2.566.863 2.777.894 2.717.894 2.415.863-2.415.893-2.717.863-2.777.74-2.566h4.747l-3.083 8.814-3.174 7.063h-3.822zm11.346-7.817c0-1.409.216-2.636.648-3.682.452-1.067 1.037-1.952 1.756-2.656a7.3 7.3 0 0 1 2.466-1.6c.945-.362 1.911-.543 2.897-.543 2.302 0 4.12.694 5.456 2.083 1.335 1.368 2.003 3.391 2.003 6.067l-.031.875-.061.815H140.49c.103.926.545 1.66 1.325 2.203s1.829.815 3.144.815c.843 0 1.664-.07 2.466-.211.822-.161 1.489-.352 2.003-.574l.617 3.652c-.247.121-.576.241-.987.362s-.873.221-1.387.302a16.88 16.88 0 0 1-1.602.242 16.56 16.56 0 0 1-1.726.09c-1.459 0-2.733-.211-3.822-.634-1.069-.423-1.962-.996-2.682-1.721-.698-.744-1.222-1.62-1.572-2.626-.328-1.006-.493-2.093-.493-3.26zm10.788-1.721a4.17 4.17 0 0 0-.216-1.117 2.47 2.47 0 0 0-.524-.966c-.226-.282-.524-.513-.894-.694-.349-.181-.791-.272-1.325-.272-.514 0-.956.091-1.325.272-.37.161-.678.382-.925.664a3.21 3.21 0 0 0-.586.996 6.91 6.91 0 0 0-.277 1.117h6.072z"/></svg>
